Obsidian-SemiLight/actions/24s/view-calendar-wedding-anniversary.svg

<svg viewBox="0 0 24 24" xmlns="http://www.w3.org/2000/svg"><path d="m7 4s-1-.00003-1 1h-2v3 11 1h16v-1-11-3h-2c0-1.00003-1-1-1-1h-3s-1-.00003-1 1h-2c0-1.00003-1-1-1-1zm0 1h3v1h-3zm7 0h3v1h-3zm-9 3h14v11h-14zm5.5 2c-1.939 0-3.5 1.561-3.5 3.5s1.561 3.5 3.5 3.5c.539612 0 1.044436-.129409 1.5-.345703.455564.216294.960388.345703 1.5.345703 1.939 0 3.5-1.561 3.5-3.5s-1.561-3.5-3.5-3.5c-.539612 0-1.044436.129409-1.5.345703-.455564-.216294-.960388-.345703-1.5-.345703zm0 1c.171802 0 .340074.018081.501953.050781-.618219.630608-1.001953 1.492268-1.001953 2.449219s.383734 1.818613 1.001953 2.449219c-.161879.0327-.330151.050781-.501953.050781-1.385 0-2.5-1.115-2.5-2.5s1.115-2.5 2.5-2.5zm3 0c1.385 0 2.5 1.115 2.5 2.5s-1.115 2.5-2.5 2.5c-.171801 0-.340073-.018081-.501953-.050781.618219-.630608 1.001953-1.492268 1.001953-2.449219s-.383734-1.818613-1.001953-2.449219c.16188-.0327.330152-.050781.501953-.050781zm-1.5.507812c.604994.455455 1 1.173236 1 1.992188s-.395006 1.536735-1 1.992188c-.604994-.455456-1-1.173236-1-1.992188s.395006-1.536735 1-1.992188z" fill="#4d4d4d"/></svg>

<svg xmlns="http://www.w3.org/2000/svg" viewBox="0 0 24 24">
  <defs id="defs3051">
    <style type="text/css" id="current-color-scheme">
      .ColorScheme-Text {
        color:#4d4d4d;
      }
      </style>
  </defs>
 <path style="fill:currentColor;fill-opacity:1;stroke:none" 
     d="M 7 4 C 7 4 6 3.99997 6 5 L 4 5 L 4 8 L 4 19 L 4 20 L 20 20 L 20 19 L 20 8 L 20 5 L 18 5 C 18 3.99997 17 4 17 4 L 14 4 C 14 4 13 3.99997 13 5 L 11 5 C 11 3.99997 10 4 10 4 L 7 4 z M 7 5 L 10 5 L 10 6 L 7 6 L 7 5 z M 14 5 L 17 5 L 17 6 L 14 6 L 14 5 z M 5 8 L 19 8 L 19 19 L 5 19 L 5 8 z M 10.5 10 C 8.561 10 7 11.561 7 13.5 C 7 15.439 8.561 17 10.5 17 C 11.039612 17 11.544436 16.870591 12 16.654297 C 12.455564 16.870591 12.960388 17 13.5 17 C 15.439 17 17 15.439 17 13.5 C 17 11.561 15.439 10 13.5 10 C 12.960388 10 12.455564 10.129409 12 10.345703 C 11.544436 10.129409 11.039612 10 10.5 10 z M 10.5 11 C 10.671802 11 10.840074 11.018081 11.001953 11.050781 C 10.383734 11.681389 10 12.543049 10 13.5 C 10 14.456951 10.383734 15.318613 11.001953 15.949219 C 10.840074 15.981919 10.671802 16 10.5 16 C 9.115 16 8 14.885 8 13.5 C 8 12.115 9.115 11 10.5 11 z M 13.5 11 C 14.885 11 16 12.115 16 13.5 C 16 14.885 14.885 16 13.5 16 C 13.328199 16 13.159927 15.981919 12.998047 15.949219 C 13.616266 15.318611 14 14.456951 14 13.5 C 14 12.543049 13.616266 11.681387 12.998047 11.050781 C 13.159927 11.018081 13.328199 11 13.5 11 z M 12 11.507812 C 12.604994 11.963267 13 12.681048 13 13.5 C 13 14.318952 12.604994 15.036735 12 15.492188 C 11.395006 15.036732 11 14.318952 11 13.5 C 11 12.681048 11.395006 11.963265 12 11.507812 z "
     class="ColorScheme-Text"
     />
</svg>
